X:39
T:How Sweet in the Woodlands
S:John Moore's Book 1
Z:Transcribed by David Jacobs  April 2021
%%VWML: Moore1-4493-p24-0
F:http://www.vwml.org/record/Moore1/4493/p24
M:3/4
L:1/8
K:G
D2|G2 (BA)(BA)|G2G2A2|B2 (dc)(dc)|(c2B2)(Bc)|
d2(ed)(ed)|c>d e2zc|(Bd) (dc)(cB)|(B2A2):|
|:B2|A2A2 (AB)|c2c2 (dc)|B2 (Bd)(ed)|d4B2|
A2G2c2|B2A2 gd|c2B2 (d/c/B/A/)|(A2G2)d2
|!fermata!e2 !fermata!c2c2|B2 ABcd|(g/e/d/c/) B2 !trill!A2|G4:|]

